dist/svgs/carbon-icons/svg/app-services.svg

<svg xmlns="http://www.w3.org/2000/svg" fill-rule="evenodd" viewBox="0 0 24 24"><path d="M12 1.2l10.5 5.7L12 12.8 1.5 7.1 12 1.2zM12 0c-.2 0-.4.1-.6.2L.4 6.3c-.6.4-.6 1.2 0 1.5l11 6c.2.1.4.1.5.1.2 0 .4-.1.6-.2l11-6.1c.6-.4.6-1.2 0-1.6l-11-6H12z"/><path d="M12.1 18.9c-.3 0-.5-.1-.8-.2L.7 12.8c-.5-.2-.7-.7-.7-1.1 0-.5.2-.9.7-1.2l.6-.4c.2-.2.5-.1.7.1.2.2.1.5-.1.7l-.6.4c-.3.1-.3.3-.3.4 0 .1 0 .2.2.3l10.6 5.9c.2.1.4.1.6 0l10.5-6c.2-.1.2-.3.2-.3 0-.1 0-.2-.2-.3l-.6-.3c-.2-.1-.4-.4-.2-.7.1-.2.4-.3.7-.2l.5.3c.5.3.7.7.7 1.2s-.2.9-.7 1.2l-10.5 6c-.2 0-.5.1-.7.1z"/><path d="M12.1 24c-.3 0-.5-.1-.8-.2L.7 17.9c-.5-.2-.7-.7-.7-1.2s.2-.9.7-1.2l.6-.4c.2-.2.5-.1.7.1.1.3 0 .6-.2.8l-.6.4c-.2.1-.2.3-.2.3 0 .1 0 .2.2.3l10.6 5.9c.2.1.4.1.6 0l10.5-6c.2-.1.2-.3.2-.3 0-.1 0-.2-.2-.3l-.6-.3c-.2-.1-.4-.4-.2-.7.1-.2.4-.3.7-.2l.5.3c.5.3.7.7.7 1.2s-.2.9-.7 1.2l-10.5 6c-.2.1-.5.2-.7.2z"/></svg>

<svg width="24px" height="24px" viewBox="0 0 24 24" version="1.1" xmlns="http://www.w3.org/2000/svg" xmlns:xlink="http://www.w3.org/1999/xlink" fill-rule="evenodd">
    <path d="M12,1.2 L22.5,6.9 L12,12.8 L1.5,7.1 L12,1.2 L12,1.2 Z M12,0 C11.8,0 11.6,0.1 11.4,0.2 L0.4,6.3 C-0.2,6.7 -0.2,7.5 0.4,7.8 L11.4,13.8 C11.6,13.9 11.8,13.9 11.9,13.9 C12.1,13.9 12.3,13.8 12.5,13.7 L23.5,7.6 C24.1,7.2 24.1,6.4 23.5,6 L12.5,1.77635684e-15 C12.4,0 12.2,0 12,0 L12,0 L12,0 Z" id="Shape"></path>
    <path d="M12.1,18.9 C11.8,18.9 11.6,18.8 11.3,18.7 L0.7,12.8 C0.2,12.6 0,12.1 0,11.7 C0,11.2 0.2,10.8 0.7,10.5 L1.3,10.1 C1.5,9.9 1.8,10 2,10.2 C2.2,10.4 2.1,10.7 1.9,10.9 L1.3,11.3 C1,11.4 1,11.6 1,11.7 C1,11.8 1,11.9 1.2,12 L11.8,17.9 C12,18 12.2,18 12.4,17.9 L22.9,11.9 C23.1,11.8 23.1,11.6 23.1,11.6 C23.1,11.5 23.1,11.4 22.9,11.3 L22.3,11 C22.1,10.9 21.9,10.6 22.1,10.3 C22.2,10.1 22.5,10 22.8,10.1 L23.3,10.4 C23.8,10.7 24,11.1 24,11.6 C24,12.1 23.8,12.5 23.3,12.8 L12.8,18.8 C12.6,18.8 12.3,18.9 12.1,18.9 L12.1,18.9 Z" id="Shape"></path>
    <path d="M12.1,24 C11.8,24 11.6,23.9 11.3,23.8 L0.7,17.9 C0.2,17.7 0,17.2 0,16.7 C0,16.2 0.2,15.8 0.7,15.5 L1.3,15.1 C1.5,14.9 1.8,15 2,15.2 C2.1,15.5 2,15.8 1.8,16 L1.2,16.4 C1,16.5 1,16.7 1,16.7 C1,16.8 1,16.9 1.2,17 L11.8,22.9 C12,23 12.2,23 12.4,22.9 L22.9,16.9 C23.1,16.8 23.1,16.6 23.1,16.6 C23.1,16.5 23.1,16.4 22.9,16.3 L22.3,16 C22.1,15.9 21.9,15.6 22.1,15.3 C22.2,15.1 22.5,15 22.8,15.1 L23.3,15.4 C23.8,15.7 24,16.1 24,16.6 C24,17.1 23.8,17.5 23.3,17.8 L12.8,23.8 C12.6,23.9 12.3,24 12.1,24 L12.1,24 Z" id="Shape"></path>
</svg>
